public/illustrations/briefcase.svg

<svg width="351" height="256" viewBox="0 0 351 256" fill="none" xmlns="http://www.w3.org/2000/svg">
<path d="M116.068 72.1237C116.493 71.0335 116.748 70.2122 117.003 69.391C118.532 63.317 120.061 57.2288 121.873 51.1831C124.068 43.3393 129.335 38.1855 136.754 35.0423C142.8 32.5646 149.101 31.4178 155.642 31.5735C166.218 31.5735 176.752 31.8284 187.272 32.2389C190.401 32.3664 193.658 32.5221 196.886 32.961C204.744 34.0088 209.36 39.0634 212.928 45.3923C216.85 52.3442 218.237 60.103 219.922 67.7628C220.276 69.3768 220.488 70.9768 220.828 72.7466C221.947 72.9024 222.796 73.0157 223.787 73.0015C240.353 73.0865 256.905 73.1573 273.456 73.3697C276.118 73.7237 278.794 74.0918 281.243 74.9838C284.712 75.7342 285.958 78.1835 285.93 81.6099C286.043 87.2025 286.029 92.6252 286.128 98.2037C286.086 128.333 286.171 158.633 286.128 188.776C286.128 206.913 286.128 224.923 286.128 243.202C286.171 248.214 284.188 250.224 279.162 250.408C259.68 250.791 240.084 251.017 220.602 251.414C199.123 251.824 177.658 252.079 156.18 252.49L97.9027 253.538C85.174 253.693 72.4171 253.976 59.6884 254.132C57.9611 254.189 56.4461 254.84 54.7329 254.897C52.8498 255.067 50.6552 255.491 49.0411 254.699C45.1474 252.886 41.2962 250.663 37.7848 248.044C34.5425 245.609 33.4807 241.758 33.1693 237.708C32.5463 228.477 31.9233 219.26 31.725 210.085C31.5268 196.634 31.4985 183.056 31.725 169.662C32.0224 154.697 32.3338 139.603 33.0559 124.553C33.5797 113.198 34.8258 101.786 35.7886 90.3458L36.0858 88.0945C38.0397 75.6491 41.5086 75.3942 50.202 73.412C56.984 71.8971 63.7519 72.5201 70.6189 72.4352C84.9191 72.3502 99.1769 72.5484 113.449 72.6051C114.284 72.7183 115.035 72.5343 116.196 72.4068L116.097 72.1096L116.068 72.1237ZM200.723 146.046C200.355 147.716 200.072 148.821 199.774 149.925C197.778 158.378 192.921 162.724 184.341 163.857C182.019 164.112 179.726 164.239 177.432 164.211C172.292 164.239 167.124 164.395 161.999 164.282C156.152 164.211 150.148 164.268 144.357 163.772C137.419 163.277 132.648 159.482 130.241 152.884C129.406 150.633 128.726 148.254 127.792 145.55L56.007 145.069C56.715 178.157 57.1965 210.793 57.9186 243.754L275.622 239.521C275.679 208.244 275.778 177.69 275.82 146.414L200.893 145.932L200.737 146.06L200.723 146.046ZM55.7523 135.172C75.0222 136.333 271.842 136.588 275.707 135.526C275.707 118.38 275.877 101.262 275.863 84.2576C275.325 84.0452 274.773 83.8328 274.221 83.7479C202.295 83.2382 130.354 82.7425 58.5698 82.2611C58.0035 82.1904 57.2815 82.2329 56.701 82.3037C56.2762 82.247 55.9646 82.4878 55.5257 82.5728C55.5257 82.5728 55.2426 82.5302 55.2142 82.8133C55.0302 83.0682 54.8603 83.3373 54.6762 83.5921L55.7664 135.158L55.7523 135.172ZM210.153 72.5909C208.524 64.5205 207.094 57.0448 203.456 50.1212C203.243 49.5266 202.748 49.031 202.379 48.5497C200.057 44.5286 196.419 42.9003 191.718 42.8295C180.179 42.5747 168.668 42.1641 157.128 41.9092C151.578 41.7393 146.028 42.7021 140.917 44.5852C138.666 45.4205 136.655 46.5816 134.984 48.3656C133.313 50.1354 132.053 52.1175 131.459 54.4678C129.944 59.4092 128.698 64.3789 127.324 69.3344C127.197 70.3113 127.055 71.3025 127.07 72.2936L129.321 72.5909C133.313 72.69 133.285 72.8315 134.375 68.9804C135.749 64.0249 138.099 59.3386 141.2 55.3317C142.46 53.3636 144.117 51.7212 146.127 50.5602C148.024 49.2435 150.261 48.5354 152.598 48.139C163.415 46.2984 174.402 46.3551 185.163 48.224C193.672 49.7956 199.307 54.5528 201.615 63.0055C202.606 66.2761 203.753 69.4335 204.886 72.7324L207.689 73.1148C208.524 73.228 209.416 73.0581 210.294 72.8882L210.195 72.5909H210.153ZM144.244 71.8971C148.251 72.8599 190.826 72.86 193.799 71.968L191.01 64.0249C190.472 62.6657 189.651 61.4198 188.49 60.4004C187.343 59.3951 185.998 58.7863 184.596 58.588C174.784 56.1245 165.001 56.6767 155.259 57.9368C153.221 58.2341 151.507 59.2961 150.162 60.8252C147.444 64.0392 145.377 67.7487 144.414 71.7698L144.258 71.8971H144.244ZM47.5543 241.064C46.7331 199.239 45.9969 157.854 45.289 116.341L44.5811 116.242L44.0855 119.895C43.6891 127.13 43.3068 134.223 43.052 141.472C42.6131 153.267 42.1741 165.075 42.16 176.926C42.0467 191.622 42.1883 206.503 42.3582 221.242C42.3865 226.381 42.9812 231.464 43.59 236.547C43.7599 238.43 44.1845 240.625 47.6959 241.092H47.5543V241.064ZM138.906 145.748C140.619 152.12 141.653 152.969 147.147 153.564L149.808 153.918C156.236 153.918 162.679 153.79 169.107 153.79C173.836 153.705 178.664 153.932 183.279 153.55C187.768 153.153 188.83 151.582 189.41 146.23C172.604 145.833 155.882 145.876 138.765 145.72H138.906V145.748Z" fill="#102185"/>
<path d="M52.7086 32.1966C52.029 32.9612 50.9812 34.3913 49.8202 35.6656C46.6203 39.2335 43.1939 42.4899 40.2631 46.242C36.2703 51.5656 33.1697 57.5829 31.3291 63.8977L31.2299 64.6056C30.083 67.8762 28.1291 69.6177 25.5664 69.5611C23.0037 69.5045 20.9791 67.5224 20.172 63.9827C19.4641 60.7404 18.7562 57.5122 17.9067 54.2558C16.1793 46.8792 10.8981 42.6032 4.63999 39.191C4.24355 38.9928 3.6771 38.9219 3.29481 38.5821C-0.683776 36.3309 -1.10848 31.9984 2.2896 29.0251C4.35677 27.4393 6.42388 25.8677 8.60432 24.5793C15.004 20.5866 19.5632 14.1869 21.4038 6.86688C21.9418 4.94131 23.0603 3.08669 24.5187 1.71331C25.0284 1.06201 25.6515 0.722129 26.416 0.396482C27.1806 0.0708344 27.8884 0.0283172 28.7521 0C29.5874 0.113269 30.2955 0.212393 30.9468 0.722101C31.6122 1.09022 32.2494 1.61414 32.5892 2.36454C34.0476 4.27595 35.1803 6.42803 36.1714 8.70756C38.989 15.3763 43.6612 20.9971 49.6928 25.089C52.4396 27.0287 53.5864 29.0393 53.0201 32.2533L52.737 32.2108L52.7086 32.1966ZM39.1872 30.8091L28.0583 17.8823C25.3115 24.5085 20.0446 28.657 14.8909 32.9754C17.3262 35.0142 19.5915 37.322 21.7153 39.6015C23.5417 41.9943 25.3257 44.6562 26.8407 47.1481C30.8618 41.6829 34.8545 36.3734 39.0313 30.7807H39.173L39.1872 30.8091Z" fill="#102185"/>
<path d="M307.705 151.539L305.595 151.256C304.76 151.143 303.953 150.747 303.302 150.237C302.65 149.727 302.056 148.92 301.858 148.184C301.532 147.419 301.518 146.428 301.631 145.579C301.744 144.729 302.141 143.936 302.792 143.299C303.642 142.266 304.604 141.543 305.695 140.836C312.42 136.446 315.974 130.217 317.291 122.529C317.588 120.277 318.055 117.913 318.636 115.704C318.806 114.444 319.513 113.396 320.618 112.688C321.722 111.98 322.912 111.57 324.03 111.711C325.149 111.853 326.381 112.306 327.131 113.127C328.023 113.963 328.448 115.024 328.419 116.299C329.255 127.13 337.028 133.02 344.178 139.406C345.325 140.411 346.797 141.19 347.958 142.053C351.824 145.14 351.682 149.416 347.59 152.29C346.472 153.139 345.24 153.833 344.008 154.527C339.067 157.288 335.3 161.932 333.7 167.425C332.681 170.724 331.817 174.023 330.94 177.336C330.557 179.149 330.048 180.791 329.396 182.419C328.986 183.368 328.306 184.133 327.372 184.713C326.451 185.166 325.418 185.449 324.427 185.322C323.435 185.194 322.458 185.053 321.694 184.387C320.929 183.722 320.321 182.915 320.009 182.023C319.598 180.819 319.344 179.503 319.216 178.342C318.494 173.103 317.899 167.878 317.177 162.64C316.866 160.743 316.54 158.845 315.931 157.047C314.7 153.451 312.293 151.129 307.988 151.27L307.677 151.511L307.705 151.539ZM324.696 134.521L318.607 143.71C322.586 147.094 325.262 151.596 326.593 156.637L336.221 146.641L324.71 134.521H324.696Z" fill="#102185"/>
</svg>

<svg xmlns="http://www.w3.org/2000/svg" width="351" height="256" fill="none" viewBox="0 0 351 256"><path fill="#102185" d="M116.068 72.124c.425-1.09.68-1.912.935-2.733 1.529-6.074 3.058-12.162 4.87-18.208 2.195-7.844 7.462-12.998 14.881-16.14 6.046-2.478 12.347-3.625 18.888-3.47 10.576 0 21.11.255 31.63.666 3.129.127 6.386.283 9.614.722 7.858 1.048 12.474 6.102 16.042 12.431 3.922 6.952 5.309 14.711 6.994 22.37.354 1.615.566 3.215.906 4.985 1.119.155 1.968.269 2.959.254 16.566.085 33.118.156 49.669.369 2.662.354 5.338.722 7.787 1.614 3.469.75 4.715 3.2 4.687 6.626.113 5.593.099 11.015.198 16.594-.042 30.129.043 60.429 0 90.572v54.426c.043 5.012-1.94 7.022-6.966 7.206-19.482.383-39.078.609-58.56 1.006-21.479.41-42.944.665-64.422 1.076l-58.277 1.048c-12.729.155-25.486.438-38.215.594-1.727.057-3.242.708-4.955.765-1.883.17-4.078.594-5.692-.198-3.894-1.813-7.745-4.036-11.256-6.655-3.242-2.435-4.304-6.286-4.616-10.336-.623-9.231-1.246-18.448-1.444-27.623-.198-13.451-.227-27.029 0-40.423.297-14.965.609-30.059 1.33-45.109.525-11.355 1.77-22.767 2.734-34.207l.297-2.252c1.954-12.445 5.423-12.7 14.116-14.682 6.782-1.515 13.55-.892 20.417-.977 14.3-.085 28.558.113 42.83.17.835.113 1.586-.07 2.747-.198l-.099-.297zm84.655 73.922a79 79 0 0 1-.949 3.879c-1.996 8.453-6.853 12.799-15.433 13.932a57 57 0 0 1-6.909.354c-5.14.028-10.308.184-15.433.071-5.847-.071-11.851-.014-17.642-.51-6.938-.495-11.709-4.29-14.116-10.888-.835-2.251-1.515-4.63-2.449-7.334l-71.785-.481c.708 33.088 1.19 65.724 1.912 98.685l217.703-4.233c.057-31.277.156-61.831.198-93.107l-74.927-.482-.156.128zm-144.97-10.874c19.27 1.161 216.089 1.416 219.954.354 0-17.146.17-34.264.156-51.268-.538-.213-1.09-.425-1.642-.51-71.926-.51-143.867-1.005-215.651-1.487-.566-.07-1.288-.028-1.869.043-.425-.057-.736.184-1.175.269 0 0-.283-.043-.312.24-.184.255-.354.524-.538.78l1.09 51.565zm154.4-62.581c-1.629-8.07-3.059-15.546-6.697-22.47-.213-.594-.708-1.09-1.077-1.571-2.322-4.021-5.96-5.65-10.661-5.72-11.539-.255-23.05-.666-34.59-.92-5.55-.17-11.1.792-16.211 2.675-2.251.835-4.262 1.997-5.933 3.78-1.671 1.77-2.931 3.752-3.525 6.103-1.515 4.941-2.761 9.91-4.135 14.866-.127.977-.269 1.968-.254 2.96l2.251.297c3.992.099 3.964.24 5.054-3.61a39.8 39.8 0 0 1 6.825-13.65c1.26-1.967 2.917-3.61 4.927-4.77 1.897-1.318 4.134-2.026 6.471-2.422 10.817-1.84 21.804-1.784 32.565.085 8.509 1.572 14.144 6.329 16.452 14.782.991 3.27 2.138 6.427 3.271 9.726l2.803.383c.835.113 1.727-.057 2.605-.227l-.099-.297zm-65.909-.694c4.007.963 46.582.963 49.555.071l-2.789-7.943c-.538-1.36-1.359-2.605-2.52-3.625-1.147-1.005-2.492-1.614-3.894-1.812-9.812-2.464-19.595-1.911-29.337-.651-2.038.297-3.752 1.36-5.097 2.888-2.718 3.214-4.785 6.924-5.748 10.945l-.156.127zm-96.69 169.167c-.82-41.825-1.557-83.21-2.265-124.723l-.708-.099-.495 3.653c-.397 7.235-.78 14.328-1.034 21.577-.439 11.795-.878 23.603-.892 35.454-.113 14.696.028 29.577.198 44.316.029 5.139.623 10.222 1.232 15.305.17 1.883.594 4.078 4.106 4.545h-.142zm91.352-95.316c1.713 6.372 2.747 7.221 8.241 7.816l2.661.354c6.428 0 12.871-.128 19.299-.128 4.729-.085 9.557.142 14.172-.24 4.489-.397 5.551-1.968 6.131-7.32-16.806-.397-33.528-.354-50.645-.51h.141zM52.709 32.197c-.68.764-1.728 2.194-2.889 3.469-3.2 3.568-6.626 6.824-9.557 10.576-3.993 5.324-7.093 11.34-8.934 17.656l-.1.708c-1.146 3.27-3.1 5.012-5.663 4.955-2.562-.057-4.587-2.039-5.394-5.578-.708-3.243-1.416-6.47-2.265-9.727-1.728-7.377-7.009-11.653-13.267-15.065-.396-.198-.963-.27-1.345-.609-3.979-2.251-4.403-6.584-1.005-9.557 2.067-1.586 4.134-3.157 6.314-4.446 6.4-3.992 10.96-10.392 12.8-17.712a11.46 11.46 0 0 1 3.115-5.154c.51-.651 1.133-.99 1.897-1.317.765-.325 1.472-.368 2.336-.396.835.113 1.544.212 2.195.722.665.368 1.302.892 1.642 1.643 1.459 1.91 2.591 4.063 3.582 6.343 2.818 6.668 7.49 12.29 13.522 16.381 2.747 1.94 3.893 3.95 3.327 7.164l-.283-.042zm-13.522-1.388L28.058 17.882c-2.747 6.627-8.013 10.775-13.167 15.093 2.435 2.04 4.7 4.347 6.824 6.627 1.827 2.392 3.61 5.054 5.126 7.546 4.02-5.465 8.014-10.775 12.19-16.367h.142zM307.705 151.539l-2.11-.283c-.835-.113-1.642-.509-2.293-1.019s-1.246-1.317-1.444-2.053c-.326-.765-.34-1.756-.227-2.605.113-.85.51-1.643 1.161-2.28.85-1.033 1.812-1.756 2.903-2.463 6.725-4.39 10.279-10.619 11.596-18.307a56 56 0 0 1 1.345-6.825c.17-1.26.877-2.308 1.982-3.016s2.294-1.118 3.412-.977c1.119.142 2.351.595 3.101 1.416.892.836 1.317 1.897 1.288 3.172.836 10.831 8.609 16.721 15.759 23.107 1.147 1.005 2.619 1.784 3.78 2.647 3.866 3.087 3.724 7.363-.368 10.237-1.118.849-2.35 1.543-3.582 2.237-4.941 2.761-8.708 7.405-10.308 12.898-1.019 3.299-1.883 6.598-2.76 9.911a30.3 30.3 0 0 1-1.544 5.083c-.41.949-1.09 1.714-2.024 2.294-.921.453-1.954.736-2.945.609-.992-.128-1.969-.269-2.733-.935-.765-.665-1.373-1.472-1.685-2.364-.411-1.204-.665-2.52-.793-3.681-.722-5.239-1.317-10.464-2.039-15.702-.311-1.897-.637-3.795-1.246-5.593-1.231-3.596-3.638-5.918-7.943-5.777l-.311.241zm16.991-17.018-6.089 9.189c3.979 3.384 6.655 7.886 7.986 12.927l9.628-9.996-11.511-12.12z"/></svg>
